X: 157
T: I Look for Him in Vain
C: Teton Sioux band 1911-1914
N: Derived from sioux152.krn
O: South Dakota, U.S.A.
N: Teton Sioux Music by Frances Densmore, 1918
Z: transcribed to **kern format by Craig Sapp
L: 1/8
M: 3/4
Q: 1/4=58
K: Db clef=bass
%%linebreak <none>
B, B, [I:setbarnb 1]| 
F FF4 ||  
[M:2/4]E F F/ E3/ | 
(E< D) (D/ B,3/) | 
D D B, B, ||  
[M:3/4]B,2(B, F,)z2 | 
B, B,(B,2B,/ A,/ B,/ A,/) ||  
[M:2/4]B, B, B, A, | 
A, F,D,2 ||  
[M:3/4]F, E, E, F, E, D, | 
B,, B,,2<B,,2B,, | 
B,,6 |]  



